X:1
T:19
T:19
T:Études enfantines op. 37
T:Henry Lemoine
C:Henry Lemoine
%%score { ( 1 3 ) | ( 2 4 ) }
L:1/8
Q:3/8=136
M:6/8
K:F
V:1 treble nm="Piano" snm="Pno."
V:3 treble 
V:2 bass 
V:4 bass 
V:1
!f!"^Allegretto\n" (!1!F!3!A!2!G !4!BAc | .B).G.A !^!F2 z |!p! (!2!c3 !5!f3 | !>!e3 .d) z2 | %4
!f! (!1!G!3!B!2!A !4!cBd | .c).A.B !^!G2 z |!p! (!2!d3 !5!g3 | !>!f3 .e) z2 |!f! !3!c6- | %9
 c(!2!=B!3!c!>(! ed!>)!c) |!f! !3!c6- | c(!2!=B!3!c!>(! ed!>)!c) | f6 | (!>!B3 .d) z2 | %14
!p! z (!1!E!2!G cBG | F3-) F z2 ||!p! (!1!E!2!G!5!c !4!=BcB | !1![FA]6) | [FG]6 | %19
 z (!1!E!2!G c!1!G!3!c |"_cresc." edc =Bdc | =BA!3!d ^ced | fed !2!^cd!2!=c | =B3 g) z2 | %24
!f! (!1!=B!3!d^c dgB) |!p! (!3!d!1!=c!2!d ecg) |!f! (!1!=B!3!d^c dgB) |!p! (!3!d!1!=c!2!d ecg) | %28
"_cresc." ([cg]3 !^!!2!!4![df]3- | [df]3 !1!!3![ce]3) |!f! (!3!dfA !2!=BdG | !3!cG-e c2) z | %32
!f! (!1!C!3!E!2!D !4!CEG | .F).G.E !^!D2 z | (!1!D!3!F!2!E !4!DFA | .G).A.F !^!E2 z | %36
!<(! (!1!G!4!dc =Bdc | !1!A!4!dc =Bd!<)!c |"_rall." !2!B!>(!dc !1!Adc | !1!Gd!>)!c) z !fermata!z2 | %40
!f!"^in tempo" (!1!F!3!A!2!G !4!BAc | .B).G.A !^!F2 z |!p! (!2!c3 !5!f3 | !>!e3 .d) z2 | %44
!f! (!1!G!3!B!2!A !4!cBd | .c).A.B !^!G2 z |!p! (!2!d3 !5!g3 | !>!f3 .e) z2 |!f! !3!c6- | %49
!<(! c(!2!=B!<)!!3!c!>(! ed!>)!c) |!f! !3!c6- |!p!!<(! c(!2!=B!<)!!3!c!>(! ed!>)!c) |"_cresc." f6 | %53
 (!>!B3 .d) z2 |!f! z"^rall.""_dim." (!1!E!2!G cBG |!mf! F2) z !^!!fermata!!3!f2 z |] %56
V:2
 (!5!F,!3!A,G, B,A,C | .B,).G,.A, !^!F,2 z | !5![A,F]3 [A,F]3 | [B,F]3- [B,F] z2 | %4
 (!5!G,!3!B,A, CB,D | .C).A,.B, !^!G,2 z |[K:treble] !5![GB]3 [GB]3 | [GB]3- [GB] z2 | %8
 (!3!EFG CDE) | F6 | (!3!EFG CDE) | F3 z z2 | !2!!1![_EF]6 | (!>!!3!!1![DF-]3 .[B,F]) z2 | %14
[K:bass] !1!C3- (C2 B, | A,CA, .F,) z2 || C6 | (!5!F,!3!A,D ^CD!2!=C | !3!=B,!1!D!2!B, !4!G,A,B,) | %19
 C6- | C z z !5!!3![E,^G,]3 | [F,A,]6- | [F,A,] z z !4![^F,D]3 | !3!!1![G,D]3- [G,D] z2 | %24
[K:treble] !2!!1![FG]6 | [EG]6 | !2!!1![FG]6 | [EG]6 | (!2!F!1!AF !4!D!1!F!2!D | %29
[K:bass] !4!=B,!1!D!5!G, !1!C!3!^G,!2!A, | !4!F,2) z !5!!2!!1![=G,DF]3 | !3!!1![CE]3- [CE]2 z | %32
 (!5!C,!3!E,D, C,E,G, | .F,).G,.E, !^!D,2 z | (!5!D,!3!F,E, D,F,A, | .G,).A,.F, !^!E,2 z | %36
[K:treble] !3!E6 | F6 | (G3 F3 | [CE]3) !fermata!!2!c'2 z |[K:bass] (!5!F,!3!A,G, B,A,C | %41
 .B,).G,.A, !^!F,2 z | !5![A,F]3 [A,F]3 | [B,F]3- [B,F] z2 | (!5!G,!3!B,A, CB,D | %45
 .C).A,.B, !^!G,2 z |[K:treble] !5![GB]3 [GB]3 | [GB]3- [GB] z2 | (!3!EFG!>(! CDE)!>)! | F6 | %50
 (!3!EFG!>(! CDE)!>)! | F3 z z2 | !2!!1![_EF]6 | (!>!!3!!1![DF-]3 .[B,F]) z2 | %54
[K:bass] !2!C3- C z (!1!!3!!5![C,E,B,] | !4!!2![F,A,]2) z !fermata!z2 z |] %56
V:3
 x6 | x6 | x6 | x6 | x6 | x6 | x6 | x6 | !2!B6 | A6 | !2!B6 | A6 | z (A_B cBA) | x6 | x6 | x6 || %16
 E6 | x6 | x6 | x6 | x6 | x6 | x6 | x6 | x6 | x6 | x6 | x6 | x6 | x6 | d3 =B3 | z G2 G2 z | x6 | %33
 x6 | x6 | x6 | G6 | A6 | B3 A3 | G3 x3 | x6 | x6 | x6 | x6 | x6 | x6 | x6 | x6 | !2!B6 | A6 | %50
 !2!B6 | A6 | z (A_B cBA) | x6 | x6 | x6 |] %56
V:4
 x6 | x6 | x6 | x6 | x6 | x6 |[K:treble] x6 | x6 | x6 | x6 | x6 | x6 | x6 | x6 |[K:bass] x6 | x6 || %16
 x6 | x6 | x6 | x6 | x6 | x6 | x6 | x6 |[K:treble] x6 | x6 | x6 | x6 | x6 |[K:bass] x6 | x6 | x6 | %32
 x6 | x6 | x6 | x6 |[K:treble] x6 | x6 | C6- | x6 |[K:bass] x6 | x6 | x6 | x6 | x6 | x6 | %46
[K:treble] x6 | x6 | x6 | x6 | x6 | x6 | x6 | x6 |[K:bass] x6 | x6 |] %56

